piano.svg

<svg viewBox="0 0 50 76" xmlns="http://www.w3.org/2000/svg"><g fill="#221f20"><path d="m50 76h-50v-11.37h50zm-49-.51h48v-9.83h-48z"/><path d="m50 65.66h-50v-11.89h50zm-49-1h48v-9.86h-48z"/><path d="m50 54.8h-50v-11.88h50zm-49-1h48v-9.86h-48z"/><path d="m50 43.94h-50v-11.88h50zm-49-1h48v-9.86h-48z"/><path d="m50 33.08h-50v-11.88h50zm-49-1h48v-9.85h-48z"/><path d="m50 22.23h-50v-11.89h50zm-49-1h48v-9.86h-48z"/><path d="m50 11.37h-50v-11.37h50zm-49-1h48v-9.86h-48z"/><path d="m.51 6.65h29.08a2 2 0 0 1 2 2v3.22a2 2 0 0 1 -2 2h-29.08a0 0 0 0 1 0 0v-7.22a0 0 0 0 1 0 0z"/><path d="m.51 18.05h29.08a2 2 0 0 1 2 2v3.22a2 2 0 0 1 -2 2h-29.08a0 0 0 0 1 0 0v-7.22a0 0 0 0 1 0 0z"/><path d="m.51 39.77h29.08a2 2 0 0 1 2 2v3.23a2 2 0 0 1 -2 2h-29.08a0 0 0 0 1 0 0v-7.23a0 0 0 0 1 0 0z"/><path d="m.51 50.63h29.08a2 2 0 0 1 2 2v3.27a2 2 0 0 1 -2 2h-29.08a0 0 0 0 1 0 0v-7.27a0 0 0 0 1 0 0z"/><path d="m.51 61.48h29.08a2 2 0 0 1 2 2v3.22a2 2 0 0 1 -2 2h-29.08a0 0 0 0 1 0 0v-7.22a0 0 0 0 1 0 0z"/></g></svg>

<svg xmlns="http://www.w3.org/2000/svg" viewBox="0 0 50 76"><defs><style>.cls-1{fill:#221f20;}</style></defs><g id="Layer_3" data-name="Layer 3"><path class="cls-1" d="M50,76H0V64.63H50ZM1,75.49H49V65.66H1Z"/><path class="cls-1" d="M50,65.66H0V53.77H50Zm-49-1H49V54.8H1Z"/><path class="cls-1" d="M50,54.8H0V42.92H50Zm-49-1H49V43.94H1Z"/><path class="cls-1" d="M50,43.94H0V32.06H50Zm-49-1H49V33.08H1Z"/><path class="cls-1" d="M50,33.08H0V21.2H50Zm-49-1H49V22.23H1Z"/><path class="cls-1" d="M50,22.23H0V10.34H50Zm-49-1H49V11.37H1Z"/><path class="cls-1" d="M50,11.37H0V0H50Zm-49-1H49V.51H1Z"/><path class="cls-1" d="M.51,6.65H29.59a2,2,0,0,1,2,2v3.22a2,2,0,0,1-2,2H.51a0,0,0,0,1,0,0V6.65A0,0,0,0,1,.51,6.65Z"/><path class="cls-1" d="M.51,18.05H29.59a2,2,0,0,1,2,2v3.22a2,2,0,0,1-2,2H.51a0,0,0,0,1,0,0V18.05A0,0,0,0,1,.51,18.05Z"/><path class="cls-1" d="M.51,39.77H29.59a2,2,0,0,1,2,2V45a2,2,0,0,1-2,2H.51a0,0,0,0,1,0,0V39.77A0,0,0,0,1,.51,39.77Z"/><path class="cls-1" d="M.51,50.63H29.59a2,2,0,0,1,2,2V55.9a2,2,0,0,1-2,2H.51a0,0,0,0,1,0,0V50.63A0,0,0,0,1,.51,50.63Z"/><path class="cls-1" d="M.51,61.48H29.59a2,2,0,0,1,2,2v3.22a2,2,0,0,1-2,2H.51a0,0,0,0,1,0,0V61.48A0,0,0,0,1,.51,61.48Z"/></g></svg>
